public/build/img/sistema/historial.svg

<svg width="20" height="18" viewBox="0 0 20 18" fill="none" xmlns="http://www.w3.org/2000/svg">
<path d="M0 2.75C0 1.37109 1.12109 0.25 2.5 0.25H17.5C18.8789 0.25 20 1.37109 20 2.75V15.25C20 16.6289 18.8789 17.75 17.5 17.75H2.5C1.12109 17.75 0 16.6289 0 15.25V2.75ZM2.5 2.75V5.25H5V2.75H2.5ZM17.5 2.75H7.5V5.25H17.5V2.75ZM2.5 7.75V10.25H5V7.75H2.5ZM17.5 7.75H7.5V10.25H17.5V7.75ZM2.5 12.75V15.25H5V12.75H2.5ZM17.5 12.75H7.5V15.25H17.5V12.75Z" fill="#00B341"/>
</svg>

<svg width="20" height="18" fill="none" xmlns="http://www.w3.org/2000/svg"><path d="M0 2.75C0 1.371 1.121.25 2.5.25h15c1.379 0 2.5 1.121 2.5 2.5v12.5c0 1.379-1.121 2.5-2.5 2.5h-15a2.502 2.502 0 01-2.5-2.5V2.75zm2.5 0v2.5H5v-2.5H2.5zm15 0h-10v2.5h10v-2.5zm-15 5v2.5H5v-2.5H2.5zm15 0h-10v2.5h10v-2.5zm-15 5v2.5H5v-2.5H2.5zm15 0h-10v2.5h10v-2.5z" fill="#00B341"/></svg>
